assets/img/templates/pieprogress/circle6.svg

<svg height="120" viewBox="0 0 105 120" width="105" xmlns="http://www.w3.org/2000/svg"><g fill="none" fill-rule="evenodd"><path d="m0 0h105v120h-105z" fill="#fff"/><g fill-rule="nonzero" transform="translate(20.581633 9)"><path d="m63.9957341 31.929382c-.2811903 17.1076742-14.4277549 30.8906183-31.8376695 30.8906183-17.5858355 0-31.84201522-14.0627773-31.84201522-31.4100395 0-17.3472557 14.25617302-31.4099608 31.84201522-31.4099608 17.4099212 0 31.5564793 13.7828733 31.8376695 30.8905397l.0042659.5194211zm-16.4323662-.7707534c-.1360597-8.2778825-6.9811692-14.9470156-15.4053033-14.9470156-8.5092981 0-15.4074473 6.8045356-15.4074473 15.1983478 0 8.3938356 6.898173 15.1984265 15.4074473 15.1984265 8.4241105 0 15.2692431-6.6691873 15.4053033-14.9470937l.0020642-.2513328z" fill="#5dd8d7"/><path d="m32.1580247 0c17.4099613 0 31.5565192 13.7829049 31.8377094 30.8905789l.0042659.5194212h-16.4345679c0-8.3098816-6.760876-15.0621369-15.1526183-15.196351l-.2547891-.0020361z" fill="#1738bb"/><path d="m17.2426312 91.0955804c1.6024305 0 2.9246238-.552871 3.9665798-1.658613 1.0419561-1.105742 1.5629341-2.5157487 1.5629341-4.2300199 0-1.4916386-.4645544-2.7142627-1.3936632-3.6678725-.9291088-.9536097-2.1234086-1.4304146-3.5828993-1.4304146-1.6099537 0-2.9453125.6790295-4.0060764 2.0370885 0-4.4749157 1.421875-6.7123736 4.265625-6.7123736 1.0005787 0 2.287037.2968435 3.859375.8905305v-1.9146406c-1.4895834-.4155809-2.7309028-.6233713-3.7239584-.6233713-2.1666666 0-3.8462095.7903458-5.0386284 2.3710374-1.192419 1.5806917-1.7886285 3.7995968-1.7886285 6.6567155 0 2.5973806.5190972 4.6270481 1.5572917 6.0890023 1.0381944 1.4619542 2.4788773 2.1929313 4.3220486 2.1929313zm.1579861-1.6474814c-1.0607639 0-1.9127604-.4174361-2.5559896-1.2523085-.6432292-.8348723-.9648437-1.9424696-.9648437-3.3227919 0-.8756883.3385416-1.6252182 1.015625-2.2485895.6770833-.6233714 1.4858217-.935057 2.4262152-.935057 1.0081019 0 1.7961516.3562122 2.3641493 1.0686366s.8519966 1.6920079.8519966 2.9387506c0 1.1428475-.2839989 2.053786-.8519966 2.7328155s-1.3297164 1.0185442-2.2851562 1.0185442zm17.8185764 1.2356111v-4.6641535h2.234375v-1.7921926h-2.234375v-10.0184681h-2.0876736l-7.515625 10.1520477v1.658613h7.515625v4.6641535zm-1.9409722-6.4563461h-5.484375l5.484375-7.3246134zm7.7864583 6.8682164 13.1467014-17.2985549h-1.7378472l-13.1579862 17.2985549zm1.6137153-8.6492774c1.120949 0 2.0011574-.3691991 2.640625-1.1075973s.9592014-1.7495214.9592014-3.0333695c0-1.2541638-.3197338-2.2504448-.9592014-2.988843s-1.5008681-1.1075973-2.5842014-1.1075973c-1.0908565 0-1.9560185.3691991-2.5954861 1.1075973s-.9592014 1.7383897-.9592014 2.9999746c0 1.2541638.317853 2.2560106.953559 3.0055404.635706.7495299 1.483941 1.1242948 2.5447049 1.1242948zm.0338541-1.1020315c-.5642361 0-1.015625-.2745802-1.3541666-.8237407-.3385417-.5491605-.5078125-1.2838482-.5078125-2.204063s.1692708-1.6530472.5078125-2.1984972c.3385416-.5454499.7974537-.8181749 1.3767361-.8181749.5717592 0 1.0269097.272725 1.3654514.8181749.3385416.54545.5078125 1.2745718.5078125 2.1873656 0 2.0259569-.6319445 3.0389353-1.8958334 3.0389353zm8.046007 9.3394386c1.120949 0 2.0011574-.3673438 2.640625-1.1020315s.9592014-1.7476661.9592014-3.0389353c0-1.2541638-.3216146-2.2504448-.9648438-2.988843s-1.5065104-1.1075973-2.5898437-1.1075973c-1.0833334 0-1.9447338.3710544-2.5842014 1.1131631-.6394676.7421088-.9592014 1.7439556-.9592014 3.0055404 0 1.2541638.3159722 2.2541554.9479167 2.9999747.6319444.7458192 1.4820601 1.1187289 2.5503472 1.1187289zm.0225694-1.1020315c-.5642361 0-1.0137442-.2745802-1.3485243-.8237407s-.5021701-1.2801376-.5021701-2.1929314c0-.9276359.1692708-1.6641788.5078125-2.2096288.3385416-.5454499.7936921-.8181749 1.3654514-.8181749.5717592 0 1.0287905.272725 1.3710937.8181749.3423033.54545.5134549 1.2745718.5134549 2.1873656 0 2.0259569-.635706 3.0389353-1.9071181 3.0389353z" fill="#000"/></g><text fill="#304254" font-family="OpenSans-SemiBold, Open Sans" font-size="6" font-weight="500"><tspan x="46.22168" y="111">Title</tspan></text></g></svg>

<?xml version="1.0" encoding="UTF-8"?>
<svg width="105px" height="120px" viewBox="0 0 105 120" version="1.1" xmlns="http://www.w3.org/2000/svg" xmlns:xlink="http://www.w3.org/1999/xlink">
    <!-- Generator: Sketch 61.1 (89650) - https://sketch.com -->
    <title>circle6</title>
    <desc>Created with Sketch.</desc>
    <g id="circle6" stroke="none" stroke-width="1" fill="none" fill-rule="evenodd">
        <rect fill="#FFFFFF" x="0" y="0" width="105" height="120"></rect>
        <g id="Group-37" transform="translate(20.581633, 9.000000)" fill-rule="nonzero">
            <g id="Group-24">
                <g id="Group-17">
                    <path d="M63.9957341,31.929382 C63.7145438,49.0370562 49.5679792,62.8200003 32.1580646,62.8200003 C14.5722291,62.8200003 0.316049383,48.757223 0.316049383,31.4099608 C0.316049383,14.0627051 14.5722224,0 32.1580646,0 C49.5679858,0 63.7145439,13.7828733 63.9957341,30.8905397 L64,31.4099608 L63.9957341,31.929382 Z M47.5633679,31.1586286 C47.4273082,22.8807461 40.5821987,16.211613 32.1580646,16.211613 C23.6487665,16.211613 16.7506173,23.0161486 16.7506173,31.4099608 C16.7506173,39.8037964 23.6487903,46.6083873 32.1580646,46.6083873 C40.5821751,46.6083873 47.4273077,39.9392 47.5633679,31.6612936 L47.5654321,31.4099608 L47.5633679,31.1586286 Z" id="Fill-1" fill="#5DD8D7"></path>
                    <path d="M32.1580247,0 C49.567986,0 63.7145439,13.7829049 63.9957341,30.8905789 L64,31.4100001 L47.5654321,31.4100001 C47.5654321,23.1001185 40.8045561,16.3478632 32.4128138,16.2136491 L32.1580247,16.211613 L32.1580247,0 Z" id="Stroke-4" fill="#1738BB"></path>
                </g>
            </g>
            <path d="M17.2426312,91.0955804 C18.8450617,91.0955804 20.167255,90.5427094 21.209211,89.4369674 C22.2511671,88.3312254 22.7721451,86.9212187 22.7721451,85.2069475 C22.7721451,83.7153089 22.3075907,82.4926848 21.3784819,81.539075 C20.4493731,80.5854653 19.2550733,80.1086604 17.7955826,80.1086604 C16.1856289,80.1086604 14.8502701,80.7876899 13.7895062,82.1457489 C13.7895062,77.6708332 15.2113812,75.4333753 18.0551312,75.4333753 C19.0557099,75.4333753 20.3421682,75.7302188 21.9145062,76.3239058 L21.9145062,76.3239058 L21.9145062,74.4092652 C20.4249228,73.9936843 19.1836034,73.7858939 18.1905478,73.7858939 C16.0238812,73.7858939 14.3443383,74.5762397 13.1519194,76.1569313 C11.9595004,77.737623 11.3632909,79.9565281 11.3632909,82.8136468 C11.3632909,85.4110274 11.8823881,87.4406949 12.9205826,88.9026491 C13.958777,90.3646033 15.3994599,91.0955804 17.2426312,91.0955804 Z M17.4006173,89.448099 C16.3398534,89.448099 15.4878569,89.0306629 14.8446277,88.1957905 C14.2013985,87.3609182 13.879784,86.2533209 13.879784,84.8729986 C13.879784,83.9973103 14.2183256,83.2477804 14.895409,82.6244091 C15.5724923,82.0010377 16.3812307,81.6893521 17.3216242,81.6893521 C18.3297261,81.6893521 19.1177758,82.0455643 19.6857735,82.7579887 C20.2537712,83.4704131 20.5377701,84.4499966 20.5377701,85.6967393 C20.5377701,86.8395868 20.2537712,87.7505253 19.6857735,88.4295548 C19.1177758,89.1085843 18.3560571,89.448099 17.4006173,89.448099 Z M35.2191937,90.6837101 L35.2191937,86.0195566 L37.4535687,86.0195566 L37.4535687,84.227364 L35.2191937,84.227364 L35.2191937,74.2088959 L33.1315201,74.2088959 L25.6158951,84.3609436 L25.6158951,86.0195566 L33.1315201,86.0195566 L33.1315201,90.6837101 L35.2191937,90.6837101 Z M33.2782215,84.227364 L27.7938465,84.227364 L33.2782215,76.9027506 L33.2782215,84.227364 Z M41.0646798,91.0955804 L54.2113812,73.7970255 L52.473534,73.7970255 L39.3155478,91.0955804 L41.0646798,91.0955804 Z M42.6783951,82.446303 C43.7993441,82.446303 44.6795525,82.0771039 45.3190201,81.3387057 C45.9584877,80.6003075 46.2782215,79.5891843 46.2782215,78.3053362 C46.2782215,77.0511724 45.9584877,76.0548914 45.3190201,75.3164932 C44.6795525,74.578095 43.818152,74.2088959 42.7348187,74.2088959 C41.6439622,74.2088959 40.7788002,74.578095 40.1393326,75.3164932 C39.499865,76.0548914 39.1801312,77.0548829 39.1801312,78.3164678 C39.1801312,79.5706316 39.4979842,80.5724784 40.1336902,81.3220082 C40.7693962,82.0715381 41.6176312,82.446303 42.6783951,82.446303 Z M42.7122492,81.3442715 C42.1480131,81.3442715 41.6966242,81.0696913 41.3580826,80.5205308 C41.0195409,79.9713703 40.8502701,79.2366826 40.8502701,78.3164678 C40.8502701,77.396253 41.0195409,76.6634206 41.3580826,76.1179706 C41.6966242,75.5725207 42.1555363,75.2997957 42.7348187,75.2997957 C43.3065779,75.2997957 43.7617284,75.5725207 44.1002701,76.1179706 C44.4388117,76.6634206 44.6080826,77.3925424 44.6080826,78.3053362 C44.6080826,80.3312931 43.9761381,81.3442715 42.7122492,81.3442715 Z M50.7582562,90.6837101 C51.8792052,90.6837101 52.7594136,90.3163663 53.3988812,89.5816786 C54.0383488,88.8469909 54.3580826,87.8340125 54.3580826,86.5427433 C54.3580826,85.2885795 54.036468,84.2922985 53.3932388,83.5539003 C52.7500096,82.8155021 51.8867284,82.446303 50.8033951,82.446303 C49.7200617,82.446303 48.8586613,82.8173574 48.2191937,83.5594661 C47.5797261,84.3015749 47.2599923,85.3034217 47.2599923,86.5650065 C47.2599923,87.8191703 47.5759645,88.8191619 48.207909,89.5649812 C48.8398534,90.3108004 49.6899691,90.6837101 50.7582562,90.6837101 Z M50.7808256,89.5816786 C50.2165895,89.5816786 49.7670814,89.3070984 49.4323013,88.7579379 C49.0975212,88.2087774 48.9301312,87.4778003 48.9301312,86.5650065 C48.9301312,85.6373706 49.099402,84.9008277 49.4379437,84.3553777 C49.7764853,83.8099278 50.2316358,83.5372028 50.8033951,83.5372028 C51.3751543,83.5372028 51.8321856,83.8099278 52.1744888,84.3553777 C52.5167921,84.9008277 52.6879437,85.6299495 52.6879437,86.5427433 C52.6879437,88.5687002 52.0522377,89.5816786 50.7808256,89.5816786 Z" id="64%" fill="#000000"></path>
        </g>
        <text id="Title" font-family="OpenSans-SemiBold, Open Sans" font-size="6" font-weight="500" fill="#304254">
            <tspan x="46.2216797" y="111">Title</tspan>
        </text>
    </g>
</svg>
